icons/iterations-24.svg

<svg xmlns="http://www.w3.org/2000/svg" width="24" height="24" viewBox="0 0 24 24">
  <defs/>
  <path d="M2.5,10.5 A8 8 0 1 1 18.5,10.5 A0.75 0.75 0 0 0 20,10.5 A9.5 9.5 0 1 0 10.5,20 L21.44,20 L18.72,22.72 A0.75 0.75 0 1 0 19.78,23.78 L23.515,20.045 C23.955,19.606 23.955,18.894 23.515,18.455 L19.78,14.72 A0.75 0.75 0 0 0 18.72,15.78 L21.44,18.5 L10.5,18.5 A8 8 0 0 1 2.5,10.5 Z"/>
</svg>

<svg xmlns="http://www.w3.org/2000/svg" width="24" height="24" viewBox="0 0 24 24"><path d="M2.5 10.5a8 8 0 1116 0 .75.75 0 001.5 0 9.5 9.5 0 10-9.5 9.5h10.94l-2.72 2.72a.75.75 0 101.06 1.06l3.735-3.735c.44-.439.44-1.151 0-1.59L19.78 14.72a.75.75 0 00-1.06 1.06l2.72 2.72H10.5a8 8 0 01-8-8z"/></svg>
